X:188
T:score266
L:1/4
Q:1/4=96
M:3/4
I:linebreak $
K:Ab
!f! (c3 | d3 | c B c | B A) z | (g3 |$ a3 | g f g | f e d) | (Pc =B c | e2 d |$ c B c | B A) z |] %12
